X: 27166
T: Miss McLeod's
R: reel
M: 4/4
K: Gmajor
|:G2 BG DGBG|B2 BA BcBA|G2 BG DGBG|A2 AG AcBA|
G2 BG DGBG|B2 BA Bc d2|(3efg ed cdef|1 ~g2fg ecAF:|2 ~g2fg eBBA||
|:G2 gf efg2|ABBA Bdef|g2 gf efge|a2 a2 abaf|
g2 gf efg2|B2BA B2 d2|(3efg ed cdef|1 ~g2fg eBBA:|2 ~g2fg ecAF||

